X:1
T:Black Fox
M:4/4
L:1/4
K:C
 z2 z E| E AG/2-E/2 D| E E2 D| E AG/2-E/2 D| E3 D| E A G E/2D/2| EC/2-B,/2 A, A,/2B,/2|\
 C C/2C/2D/2-C/2 B,| A,3 z|
